X: 1
T: Hey Jude
M: 4/4
L: 1/8
R: hornpipe
K: Gmaj
dc|:B2BA BcdB|A2AG AFDB|cBcd efgf|edd^c d2Bd|
e^def agfe|d2de d2 (3Bcd|ed^ce d=cAF|1 G2GF G2dc:|2 G2GF G2gf||
=f2ge eddc|e2 (3efg e2 (3efg|cGEG cABc|d2de dABc|
BAGA (3Bcd gf| =f2ge eddc|e2 (3efg e2 (3efg|cGEG cABc|
d2de dABc|BA G4 de|=f2fd ^fg a2|a4 d2fg|abaf|
